X:1
T:Landsgrove
T:A Major              Hezekiah Moors, 1809
T:Transcribed from Province Harmony, 1809.
T:Isaac Watts, 1719 (Psalm 119, Part 5)             86. 86. (C. M.)
%%score [ 1 2 3 4 ]
L:1/8
Q:1/4=110
M:2/2
K:A
V:1 treble nm="Tr." snm="Tr."
V:2 treble nm="C." snm="C."
V:3 treble-8 nm="T." snm="T."
V:4 bass nm="B." snm="B."
V:1
"_3. When nature sinks and spirits droop,  Thy pro–mi–ses  of  grace                                                                             Are  pil – lars  to  sup –""_1. How did thy word my heart engage,  How well employ my tongue;                                                                         And   in   my  tiresome""_2. No treasures so en – rich  the mind;   Nor shall thy word be sold                                                                              For  loads  of  sil –ver" c8 | %1
 e2 e2 f2 ed | cB A2 B2 c2 | d2 cB A2 B2 | c6 z2 |: z8 | z8 | z4 z2 c2 | e2 ed c2 c2 | %9
"_1. pil   –        –    gri  – mage,               Yields   me                  a     heavenly   song.""_2. well                 re  –  fined,                Nor      heaps              of    choi–cest  gold.""_3. –port               my    hope,                And     there                 I   write  thy  praise." (cBcd c2) cB | %10
 (A3 G F2) B2 | (ABAB c2) f2 | e4 d4 |1 c6 z2 :|2 c8 |] %15
V:2
"_1. How did thy word my heart engage,  How well employ my tongue;                                            And  in  my tiresome  pil–gri–mage, Yields""_2. No treasures so en – rich  the mind;   Nor shall thy word be sold                                                 For loads of  sil –ver  well  re–fined,  Nor""_3. When nature sinks and spirits droop,  Thy pro–mi–ses  of  grace                                                 Are  pil–lars to  sup –port  my hope, And" A8 | %1
 A2 E2 F2 G2 | A2 A2 G2 E2 | F2 EF E2 E2 | E6 z2 |: z8 | z4 z2 E2 | F2 FG A2 c2 | B2 G2 A2 A2 | %9
"_1. me     a     hea–venly  song,             Yields   me                  a     heavenly   song.""_2. heaps  of   choicest     gold,              Nor      heaps              of    choi–cest  gold.""_3. there   I     write  thy  praise,            And     there                 I   write  thy  praise." A2 GF E2 FG | %10
 (A3 B A2) GF | E6 FD | E4 E4 |1 E6 z2 :|2 E8 |] %15
V:3
"_1. How did thy word my heart engage,  How well employ my tongue;                    And in my tiresome pilgrimage, Yields  me  a  heavenly""_2. No treasures so en – rich  the mind;   Nor shall thy word be sold                         For loads of silver well refined,   Nor heaps of choicest""_3. When nature sinks and spirits droop,  Thy pro–mi–ses  of  grace                        Are  pillars to support my hope,  And  there  I write thy" A8 | %1
 c2 c2 d2 cB | A>B c^d e2 e2 | f2 ed c2 B2 | A6 z2 |: z4 z2 A2 | c2 c2 cd e2 | d2 d2 cB A2 | %8
 G2 B2 AG F2 | %9
"_1. song,                                                 Yields   me                  a     heavenly   song.""_2. gold,                                                  Nor      heaps              of    choi–cest  gold.""_3. praise,                                                And     there                 I   write  thy  praise." (EFED C2 E2 | %10
 ABAB c2) d2 | (cBcd e2) d2 | c4 B4 |1 A6 z2 :|2 A8 |] %15
V:4
 A,,8 | A,,2 A,,2 D,2 E,2 | A,G, F,2 E,2 C,2 | B,,2 C,D, E,2 E,2 | %4
 A,,6"_1. And in my tiresome pilgrimage,  And in my tiresome pilgrimage,  Yields""_2. For loads of  silver well refined,   For loads of silver  well refined,   Nor""_3. Are  pillars to support my hope,   Are  pillars to  support my hope,  And" A,,2 |: %5
 E,2 E,2 E,2 A,2 | F,2 F,2 A,B, C2 | B,2 B,2 A,G, F,2 | E,2 E,2 F,2 F,2 | %9
"_1. me    a      hea–venly song,               Yields me                    a     heavenly  song.  And""_2. heaps  of   choicest    gold,               Nor      heaps              of    choi–cest  gold.   For""_3. there  I     write  thy  praise,             And     there                I   write  thy  praise.   Are" C,2 C,B,, A,,2 A,G, | %10
 (F,3 G, A,2) B,2 | (C3 B, A,2) D,2 | E,4 E,4 |1 A,,6 A,,2 :|2 A,,8 |] %15

